src/actions/22/handle-sort.svg

<?xml version="1.0" encoding="UTF-8" standalone="no"?>
<svg xmlns="http://www.w3.org/2000/svg" viewBox="0 0 22 22">
  <defs id="defs3051">
    <style type="text/css" id="current-color-scheme">
      .ColorScheme-Text {
        color:#2e3440;
      }
      </style>
  </defs>
 <path 
     style="fill:currentColor;fill-opacity:1;stroke:none" 
     d="M 10.958984 3.1328125 L 9.0839844 5.0078125 L 7.9082031 6.1835938 L 8.6152344 6.890625 L 9.7910156 5.7148438 L 10.958984 4.546875 L 12.126953 5.7148438 L 13.302734 6.890625 L 14.009766 6.1835938 L 12.833984 5.0078125 L 10.958984 3.1328125 z M 5.9589844 9.0117188 L 5.9589844 10.011719 L 15.958984 10.011719 L 15.958984 9.0117188 L 5.9589844 9.0117188 z M 5.9589844 12.011719 L 5.9589844 13.011719 L 15.958984 13.011719 L 15.958984 12.011719 L 5.9589844 12.011719 z M 8.6152344 15.132812 L 7.9082031 15.839844 L 9.0839844 17.015625 L 10.958984 18.890625 L 12.833984 17.015625 L 14.009766 15.839844 L 13.302734 15.132812 L 12.126953 16.308594 L 10.958984 17.476562 L 9.7910156 16.308594 L 8.6152344 15.132812 z "
	 class="ColorScheme-Text"
     />
</svg>

<svg viewBox="0 0 22 22" xmlns="http://www.w3.org/2000/svg">
 <defs>
  <style type="text/css">.ColorScheme-Text {
        color:#2e3440;
      }</style>
 </defs>
 <path class="ColorScheme-Text" d="m10.959 3.1328-3.0508 3.0508 0.70703 0.70703 2.3437-2.3438 2.3438 2.3438 0.70703-0.70703-3.0508-3.0508zm-5 5.8789v1h10v-1h-10zm0 3v1h10v-1h-10zm2.6562 3.1211-0.70703 0.70703 3.0508 3.0508 3.0508-3.0508-0.70703-0.70703-2.3438 2.3438-2.3437-2.3438z" fill="currentColor"/>
</svg>
